X:1
T:Title
%%score ( 1 2 ) { 3 | 4 }
L:1/8
Q:1/4=97
M:6/8
K:A
V:1 treble nm="Grand Piano, Soprano"
V:2 treble 
V:3 bass nm="Choir Pad, God Is Love (Woodruff)"
V:4 bass 
V:1
 [Ec]2 [Ec] [^D=c]2 [Dc] | [Ec]2 [CA] [Fd]2 [Ec] | [DB]2 [DB] [C^A]2 [CA] | z3 .e3 | %4
w: By~John~Sylvester~Fearis * * *||||
 [Ec]2 [Ec] [=Ge]2 [Ge] | [Fd]2 F [Fc]2 [FB] | [EA]3 [Gc]2 [GB] | [EA]6 | [Ec]2 [Ec] F2 E | z3 G3 | %10
w: ||||||
 [CA]2 [EB] [Ec][=Ge][Fd] | [EG][Gc][GB] [EA]3- | [EA]6 |] %13
w: |||
V:2
 x6 | x6 | x6 | [DB]2 E E2- [Ed] | x6 | x6 | x6 | x6 | x6 | [Dd]2 [Dd] E2 D | x6 | x6 | x6 |] %13
V:3
 A,2 A, F,2 F, | E,2 E, A,2 A, | G,2 G, =G,2 G, | G,2 D C2 B, | A,2 A, A,2 A, | %5
 A,2[K:treble] D E2 D | C3 E2 D | C6 | A,2 A, D2 C | B,2 B, C2 B, | A,2 G, A,^A,B, | B,ED C3- | %12
 C6 |] %13
V:4
 A,,2 A,, A,,2 A,, | A,,2 A,, A,,2 A,, | E,2 E, E,2 E, | E,2 B, A,2 G, | z3 C,2 C, | %5
 D,2 D, D,2 D, | E,3 E,2 E, | A,6 | z3 F,3 | z3 E,2 ^E, | F,2 E, z C,D, | E,2 E, A,3- | A,6 |] %13

